src/assets/images/prototype/produits-labellises/8-desodorisant.svg

<svg width="189" height="668" viewBox="0 0 189 668" fill="none" xmlns="http://www.w3.org/2000/svg">
<path d="M183.936 119.079L186.299 650.936C170.878 655.688 130.936 665.231 94.5281 665.393C58.12 665.555 20.2616 656.357 5.88347 651.738L3.52051 119.881C20.4919 116.15 62.7346 108.989 95.9346 110.189C129.135 111.389 168.435 116.616 183.936 119.079Z" fill="white" stroke="#81EC40" stroke-width="5"/>
<path d="M18.5747 32.8412C13.4211 43.5683 6.94071 97.1184 3.52609 121.218C18.1395 117.808 55.3198 108.544 93.6831 109.444C132.046 110.344 170.38 116.686 183.935 119.079C186.287 99.6666 181.858 54.0594 151.854 32.249C121.85 10.4386 59.0789 3.44756 31.4438 2.67832C29.3014 8.26296 23.7283 22.114 18.5747 32.8412Z" fill="white" stroke="#81EC40" stroke-width="5"/>
<ellipse cx="26.2453" cy="58.0938" rx="7" ry="9.5" transform="rotate(-0.254556 26.2453 58.0938)" fill="white" stroke="#81EC40" stroke-width="5"/>
</svg>

<svg width="189" height="668" fill="none" xmlns="http://www.w3.org/2000/svg"><path d="M183.936 119.079l2.363 531.857c-15.421 4.752-55.363 14.295-91.77 14.457-36.409.162-74.267-9.036-88.646-13.655L3.521 119.881c16.97-3.731 59.214-10.892 92.414-9.692 33.2 1.2 72.5 6.427 88.001 8.89z" fill="#fff" stroke="#81EC40" stroke-width="5"/><path d="M18.575 32.841C13.42 43.568 6.94 97.118 3.526 121.218c14.614-3.41 51.794-12.674 90.157-11.774 38.363.9 76.697 7.242 90.252 9.635 2.352-19.412-2.077-65.02-32.081-86.83-30.004-21.81-92.775-28.801-120.41-29.57-2.143 5.584-7.716 19.435-12.87 30.162z" fill="#fff" stroke="#81EC40" stroke-width="5"/><ellipse cx="26.245" cy="58.094" rx="7" ry="9.5" transform="rotate(-.255 26.245 58.094)" fill="#fff" stroke="#81EC40" stroke-width="5"/></svg>
